svgs/sharp-solid/puzzle-piece.svg

<svg xmlns="http://www.w3.org/2000/svg" viewBox="0 0 512 512"><!--! Font Awesome Pro 6.6.0 by @fontawesome - https://fontawesome.com License - https://fontawesome.com/license (Commercial License) Copyright 2024 Fonticons, Inc. --><path d="M192 89.6c-19.1-8.3-32-23.8-32-41.6c0-26.5 28.7-48 64-48s64 21.5 64 48c0 17.8-12.9 33.3-32 41.6l0 38.4 128 0 0 128 38.4 0c8.3-19.1 23.8-32 41.6-32c26.5 0 48 28.7 48 64s-21.5 64-48 64c-17.8 0-33.3-12.9-41.6-32L384 320l0 192-128 0 0-38.4c19.1-8.3 32-23.8 32-41.6c0-26.5-28.7-48-64-48s-64 21.5-64 48c0 17.8 12.9 33.3 32 41.6l0 38.4L0 512 0 320l38.4 0c8.3 19.1 23.8 32 41.6 32c26.5 0 48-28.7 48-64s-21.5-64-48-64c-17.8 0-33.3 12.9-41.6 32L0 256 0 128l192 0 0-38.4z"/></svg>

<svg xmlns="http://www.w3.org/2000/svg" viewBox="0 0 512 512"><!--! Font Awesome Pro 6.4.2 by @fontawesome - https://fontawesome.com License - https://fontawesome.com/license (Commercial License) Copyright 2023 Fonticons, Inc. --><path d="M192 89.6c-19.1-8.3-32-23.8-32-41.6c0-26.5 28.7-48 64-48s64 21.5 64 48c0 17.8-12.9 33.3-32 41.6V128H384V256h38.4c8.3-19.1 23.8-32 41.6-32c26.5 0 48 28.7 48 64s-21.5 64-48 64c-17.8 0-33.3-12.9-41.6-32H384V512H256V473.6c19.1-8.3 32-23.8 32-41.6c0-26.5-28.7-48-64-48s-64 21.5-64 48c0 17.8 12.9 33.3 32 41.6V512H0V320H38.4c8.3 19.1 23.8 32 41.6 32c26.5 0 48-28.7 48-64s-21.5-64-48-64c-17.8 0-33.3 12.9-41.6 32H0V128H192V89.6z"/></svg>
